!!!COM: Scarlatti, Domenico
!!!CDT: 1685-1757
!!!OTL: Sonata in G major, L.348, K.244
!!!SCT: K. 244
!!!SCT: L. 348
!!!OMD: Allegro ([quarter-dot]=76)
**kern	**kern	**dynam
*staff2	*staff1	*staff1/2
*Icemba	*Icemba	*
*I"L.348 (K.244)	*I"L.348 (K.244)	*
*>[A,A,B,B]	*>[A,A,B,B]	*>[A,A,B,B]
*>norep[A,B]	*>norep[A,B]	*>norep[A,B]
*>A	*>A	*>A
*clefF4	*clefG2	*
*k[f#c#g#d#a#]	*k[f#c#g#d#a#]	*
*B:	*B:	*
*M3/8	*M3/8	*
*MM114	*MM114	*
=1-	=1-	=1-
4.r	8r	.
.	(8bL	p
.	8ff#J	.
=2	=2	=2
8r	8dd#L	.
(8BL	8b	.
8f#J	8a#J	.
=3	=3	=3
8d#L	8bL)	.
8B	(8dd#	.
8A#J	8eeJ	.
=4	=4	=4
8BL)	8dd#L	.
(8d#	8b	.
8eJ	8gg#J	.
=5	=5	=5
8d#L	8ff#L	.
8B	8dd#	.
8g#J	8bJ)	.
=6	=6	=6
8f#L	(8aa#L	.
8d#	8bb	.
8BJ	8ff#J	.
!!LO:LB:g=z
=7	=7	=7
*	*	*^
.	(32eeqq	.	.
8A#L	8eeTL)	>	<
.	32dd#qLLL	.	.
.	32eeqJJJ	.	.
8B)	8dd#)	.	.
([8eJ	8gg#J	]	.
*	*	*v	*v
=8	=8	=8
8eL]	(8a#Lm	>
8d#)	8b)	]
([8BJ	8dd#'J	.
=9	=9	=9
8BL]	(8e#Lm	>
8A#)	8f#)	]
8F#'J	8en'J	.
=10	=10	=10
8B'L	8d#'L	mf
8d#'	8f#'	.
8B'J	[>8b^J	.
=11	=11	=11
8F#'L	16bLL]	.
.	(16a#	.
8A#'	16cc#	.
.	16bJ	.
8F#'J	[8eeJ)	.
=12	=12	=12
8B'L	(16eeLL]	<
.	16dd#	.
8d#'	16ff#	.
.	16eeJ	.
8B'J	[8gg#J	[
!!LO:LB:g=z
=13	=13	=13
(4e	16gg#LL]	.
.	16ff#	.
.	16ee	.
.	16dd#	.
8e#)	16cc#	.
.	16bJJ)	.
=14	=14	=14
.	(16bqq	.
(8f#L	(8.a#L)m	>
8F#J)	.	.
.	16g#k	.
8r	8f#J)	]]
*clefG2	*	*
=15	=15	=15
(8f#'L	16r	p
.	(16cc#LL	.
8f#'	16a#	.
.	16b	.
8f#'J	16cc#	.
.	16dd#JJ	.
=16	=16	=16
8e#' 8g#'L	8cc#'L	.
8e#' 8g#'	8gg#'	.
8e#') 8g#'J	8cc#'J)	.
=17	=17	=17
(8f#'L	16r	.
.	(16cc#LL	.
8f#'	16a#	.
.	16b	.
8f#'J	16cc#	.
.	16dd#JJ	.
=18	=18	=18
8e#' 8g#'L	8cc#'L	.
8e#' 8g#'	8gg#'	.
8e#') 8g#'J	8cc#'J)	.
!!LO:LB:g=z
=19	=19	=19
(8f#' 8a#'L	16r	.
.	(16cc#LL	mf
8f#'	16a#	.
.	16b#	.
8f#' 8a#'J	16cc#	.
.	16dd#JJ	.
=20	=20	=20
8e#' 8a#'L	8cc#'L	.
8e#' 8a#'	8aa#'	.
8e#') 8a#'J	8cc#'J)	.
=21	=21	=21
(8f#' 8a#'L	16r	.
.	(16cc#LL	p
8f#'	16a#	.
.	16b#	.
8f#' 8a#'J	16cc#	.
.	16dd#JJ	.
=22	=22	=22
8e#' 8a#'L	8cc#'L	.
8e#' 8a#'	8aa#'	.
8e#') 8a#'J	8cc#'J)	.
=23	=23	=23
(8e#' 8g#' 8b'L	16r	.
.	(16ee#LL	.
8e#' 8g#' 8b'	16cc##	.
.	16dd#	.
8e#' 8g#' 8b'J	16ee#	.
.	16ff#JJ	.
!!LO:LB:g=z
=24	=24	=24
8e#' 8g#' 8b'L	8ee#'L	.
8e#' 8g#' 8b'	8bb'	.
8e#') 8g#' 8b'J	8gg#'J)	.
=25	=25	=25
(8d#' 8g#' 8b'L	16r	.
.	(16ee#LL	.
8d#' 8g#' 8b'	16cc##	.
.	16dd#	.
8d#' 8g#' 8b'J	16ee#	.
.	16ff#JJ	.
=26	=26	=26
8d#' 8g#' 8b'L	8ee#'L	.
8d#' 8g#' 8b'	8bb'	.
8d#') 8g#' 8b'J	8gg#'J)	.
=27	=27	=27
(8c##' 8g#' 8a#'L	16r	.
.	(16ee#LL	.
8c##' 8g#' 8a#'	16cc##	.
.	16dd#	.
8c##' 8g#' 8a#'J	16ee#	.
.	16ff#JJ	.
=28	=28	=28
8c##' 8g#' 8a#'L	8ee#'L	.
8c##' 8g#' 8a#'	8bb'	.
8c##') 8g#' 8a#'J	8gg#'J)	.
!!LO:LB:g=z
=29	=29	=29
!LO:N:n=1:acc=n#	!	!
(8c#X' 8g#' 8b'L	16r	.
.	(16gg#LL	<
8c#' 8g#' 8b'	16ee#	.
.	16ff#	.
8c#' 8g#' 8b'J	16gg#	.
.	16aa#JJ	.
=30	=30	=30
8c#' 8g#' 8b'L	8gg#'L	.
8c#' 8g#' 8b'	8bb'	.
8c#') 8g#' 8b'J	8gg#'J)	.
=31	=31	=31
(8c#' 8f#' 8an'L	16r	.
.	(16aanLL	.
8c#' 8f#' 8a'	16ff#	.
.	16gg#	.
8c#' 8f#' 8a'J	16aa	.
.	16bbJJ	.
=32	=32	=32
8c#' 8f#' 8an'L	8aan'L	.
8c#' 8f#' 8a'	8ccc#'	.
8c#') 8f#' 8a'J	8aa'J)	.
=33	=33	=33
(8B' 8e' 8gn'L	16r	.
.	(16ggnLL	.
8B' 8e' 8g'	16ee	.
.	16ff#	.
8B' 8e' 8g'J	16gg	.
.	16aanJJ	.
=34	=34	=34
8B' 8e' 8gn'L	8ggn'L	.
8B' 8e' 8g'	8bb'	.
8B') 8e' 8g'J	8gg'J)	.
!!LO:LB:g=z
=35	=35	=35
(8An' 8c#' 8f#'L	16r	mf
.	16ff#'LL	.
8A' 8c#' 8f#'	(16ff#	.
.	16cc#	.
8A' 8c#' 8f#'J	16aan	.
.	16gg#XJJ)	.
=36	=36	=36
8An' 8c#' 8f#'L	(16gg#LL	.
.	16ff#)	.
8A' 8c#' 8f#'	(16ff#	.
.	16ee)	.
8A') 8c#' 8f#'J	(16ee	.
.	16ddnJJ)	.
*clefF4	*	*
=37	=37	=37
8B' (8dn'L	(16ddnLL	.
.	16cc#)	.
8B' 8d')	(16cc#	.
.	16b)	.
8C#' 8c#'J	(16b	.
.	16anJJ)	.
=38	=38	=38
*^	*	*
(8DnL	(4.Dn	(16anLL	.
.	.	16g#)	.
8F#	.	(16g#	.
.	.	16f#	.
8BJ	.	16e#	.
.	.	16f#JJ)	.
*v	*v	*	*
=39	=39	=39
8.C# 8.c#L))	(8f#L	.
.	16e#Jk)	.
(16c#L	16r	p
16dn	8r	.
16BJJ	.	.
*clefG2	*	*
!!LO:LB:g=z
=40	=40	=40
16e#LL	16r	.
16c#	(16g#	<
16f#	8an'L)	.
16c#	.	.
16g#	8b'J	.
16c#JJ	.	.
=41	=41	=41
16anLL	8cc#'L	.
16c#	.	.
16b	8dd#'	.
16c#	.	.
16cc#	8ee#'J	.
16c#JJ	.	.
=42	=42	=42
16ddnLL	8ff#'L	.
16c#	.	.
16cc#	8ee#'	.
16c#	.	.
16dd	8ff#'J	.
16c#JJ)	.	.
=43	=43	=43
*^	*	*
8cc#	8.c#L	(16gg#LL	f >
.	.	16ee#J	.
4ryy	.	8cc#J)	]
!	!	!	!LO:DY:a=2
.	(>16c#L	.	p
.	16dn	8r	.
.	16BJJ	.	.
*v	*v	*	*
=44	=44	=44
16e#LL	16r	.
16c#	(16g#	<
16f#	8an'L)	.
16c#	.	.
16g#	8b'J	.
16c#JJ	.	.
!!LO:LB:g=z
=45	=45	=45
16anLL	8cc#'L	.
16c#	.	.
16b	8dd#'	.
16c#	.	.
16cc#	8ee#'J	.
16c#JJ	.	.
=46	=46	=46
16ddnLL	8ff#'L	.
16c#	.	.
16cc#	8ee#'	.
16c#	.	.
16dd	8ff#'J	.
16c#JJ)	.	.
=47	=47	=47
*^	*	*
8cc#	8.c#L	(16gg#LL	f >
.	.	16ee#J	.
4ryy	.	8cc#J)	]
.	(>16bL	.	.
.	16a#	8r	.
.	16g#JJ	.	.
*v	*v	*	*
=48	=48	=48
8.f#L	16r	p
.	16a#X'/ 16cc#'/	<
.	[4a#/ [4cc#/	.
16e#L	.	.
16d#	.	.
16c#JJ	.	.
*clefF4	*	*
=49	=49	=49
16BLL	16a#X] 16cc#LL]	.
16An	16b' 16dd#'JJ	.
16G#	[4b [4dd#	.
16F#	.	.
16E#	.	.
16D#JJ	.	.
!!LO:LB:g=z
=50	=50	=50
*	*^	*
16C#LL	4ryy	16b] 16dd#LL]	.
16BB	.	16b' 16ee#'J	.
16AA#	.	8b' 8ee#'	.
16GG#J	.	.	.
8FF#'J)	(16ff#LL	8a#J	f
.	16cc#JJ	.	.
*	*v	*v	*
=51	=51	=51
(8BBL	16dd#LL	.
.	16b	.
8C#)	16a#	.
.	16g#	.
8CC#'J	16f#	.
.	16e#JJ)	.
=52	=52	=52
(8.f#L	16r	p
.	16a#'/ 16cc#'/	<
.	[4a#/ [4cc#/	.
16e#L	.	.
16d#	.	.
16c#JJ	.	.
=53	=53	=53
16BLL	16a#] 16cc#LL]	.
16A#	16b' 16dd#'JJ	.
16G#	[4b [4dd#	.
16F#	.	.
16E#	.	.
16D#JJ	.	.
=54	=54	=54
*	*^	*
16C#LL	4ryy	16b] 16dd#LL]	.
16BB	.	16b' 16ee#'J	.
16AA#	.	8b' 8ee#'	.
16GG#J	.	.	.
8FF#'J)	(16ff#LL	8a#J	f
.	16cc#JJ	.	.
*	*v	*v	*
!!LO:LB:g=z
=55	=55	=55
(8BBL	16dd#LL	.
.	16b	.
8C#)	16a#	.
.	16g#	.
8CC#'J	16f#	.
.	16e#JJ	.
=56	=56	=56
(8F#L	16f#LL)	.
.	(16ff#	.
8G#	16aa#	.
.	16gg#)	.
8A#J	(16gg#	.
.	16ff#JJ	.
=57	=57	=57
8BL	16ee#LL	.
.	16dd#)	.
8c#)	(16dd#	.
.	16cc#)	.
8C#'J	(16cc#	.
.	16bJJ)	.
=58	=58	=58
(8F#L	(16bLL	.
.	16a#)	.
8G#	(<16a#	.
.	16g#	.
8A#J	16f#	.
.	16g#JJ	.
=59	=59	=59
8BL	16a#LL	.
.	16b	.
8c#)	16a#	.
.	16g#	.
8C#'J	16f#	.
.	16e#JJ	.
!!LO:LB:g=z
=60	=60	=60
(8F#L	16f#LL)	.
.	(16ff#	p
8G#	16aa#	.
.	16gg#)	.
8A#J	(16gg#	.
.	16ff#JJ	.
=61	=61	=61
8BL	16ee#LL	.
.	16dd#)	.
8c#)	(16dd#	.
.	16cc#)	.
8C#'J	(16cc#	.
.	16bJJ)	.
=62	=62	=62
(8F#L	(16bLL	.
.	16a#)	.
8G#	(16a#	.
.	16g#	.
8A#J	16f#	.
.	16g#JJ	.
=63	=63	=63
8BL	16a#LL	.
.	16b	.
8c#)	16a#	.
.	16g#	.
8C#'J	16f#	.
.	16e#JJ	.
=64	=64	=64
4.F#	4.f#)	.
!!LO:LB:g=z
=65:|!|:	=65:|!|:	=65:|!|:
*>B	*>B	*>B
*clefG2	*	*
(8f#'L	8r	p <
8f#'	(8.a#Lmm	.
8f#'J	.	.
.	16bJk	[[
=66	=66	=66
8e#' 8g#'L	8cc#'L	>
8e#' 8g#'	8cc#'	.
8e#') 8g#'J	8cc#'J)	]]
=67	=67	=67
(8f#'L	8r	.
8f#'	(8.a#Lmm	.
8f#'J	.	.
.	16bJk	.
=68	=68	=68
8e#' 8g#'L	8cc#'L	.
8e#' 8g#'	8cc#'	.
8e#') 8g#'J	8cc#'J)	.
=69||	=69||	=69||
*k[]	*k[]	*k[]
(8f' 8a-' 8b'L	8r	.
8f' 8a-' 8b'	(8.ddLmm	<
8f' 8a-' 8b'J	.	.
.	16ee-Jk	.
=70	=70	=70
8e-' 8a-' 8b'L	8ff'L	.
8e-' 8a-' 8b'	8ff'	.
8e-') 8a-' 8b'J	8ffJ)	.
!!LO:LB:g=z
=71	=71	=71
(8e-' 8a-' 8b'L	8r	.
8e-' 8a-' 8b'	(8.ddLmm	.
8e-' 8a-' 8b'J	.	.
.	16ee-Jk	.
=72	=72	=72
8d' 8a-' 8b-'L	8ff'L	.
8d' 8a-' 8b-'	8ff'	.
8d') 8a-' 8b-'J	8ff'J)	.
=73	=73	=73
(8d-' 8f' 8b-'L	8r	.
8d-' 8f' 8b-'	(8.ffL	.
8d-' 8f' 8b-'J	.	.
.	16ggJk	.
=74	=74	=74
8c' 8f' 8a-'L	8aa-'L	.
8c' 8f' 8a-'	8aa-'	.
8c') 8f' 8a-'J	8aa-'J)	.
=75	=75	=75
(8d-' 8f' 8b-'L	8r	.
8d-' 8f' 8b-'	(8.ffLMM	.
8d-' 8f' 8b-'J	.	.
.	16ggJk	.
=76	=76	=76
8c' 8f' 8a-'L	8aa-'L	.
8c' 8f' 8a-'	8aa-'	.
8c') 8f' 8a-'J	8aa-'J)	.
!!LO:LB:g=z
=77	=77	=77
8B- 8d- 8e- 8gL	8r	.
8B- 8d- 8e- 8g	(8.aa-LMM	mf
8B- 8d- 8e- 8gJ	.	.
.	16bb-Jk	.
=78	=78	=78
8A- 8e- 8a-L	8ccc'L	.
8A- 8e- 8a-	8ccc'	.
8A- 8e- 8a-J	8ccc'J)	.
=79	=79	=79
8B- 8d- 8e- 8gL	8r	.
8B- 8d- 8e- 8g	(8.aa-LMM	.
8B- 8d- 8e- 8gJ	.	.
.	16bb-Jk	.
=80	=80	=80
8A- 8c 8gL	8ccc'L	.
8A- 8c 8g	8ccc'	.
8A- 8c 8gJ	8ccc'J)	.
=81	=81	=81
8A- 8c 8fL	8r	.
8A- 8c 8f	(8.ccLMM	p
8A- 8c 8fJ	.	.
.	16ddJk	.
*clefF4	*	*
=82	=82	=82
8G 8c 8e-L	8ee-'L	.
8G 8c 8e-	8ee-'	.
8G 8c 8e-J	8ee-'J)	.
!!LO:LB:g=z
=83	=83	=83
8A- 8c 8fL	8r	.
8A- 8c 8f	(8.ccLMM	.
8A- 8c 8fJ	.	.
.	16ddJk	.
=84	=84	=84
8G 8B- 8enL	8een'L	.
8G 8B- 8e	8ee'	.
8G 8B- 8eJ	8ee'J)	.
=85	=85	=85
8F 8A 8eL	8r	<
8F 8A 8d	(8.eeLmm	.
8F 8A 8dJ	.	.
.	16ffJk	.
=86	=86	=86
8E 8G 8dL	8gg'L	.
8E 8G 8c#	8gg'	.
8E 8G 8c#J	8gg'J)	.
=87	=87	=87
8D 8G 8B-L	8r	.
8D 8G 8B-	(8.eeLmm	.
8D 8G 8B-J	.	.
.	16ffJk	.
=88	=88	=88
8C# 8E 8GL	8gg'L	.
8C# 8E 8G	8gg'	.
8C# 8E 8GJ	8gg'J)	.
!!LO:LB:g=z
=89	=89	=89
8BB 8E 8GL	8r	.
8BB 8E 8G	(8.eeLMM	.
8BB 8E 8GJ	.	.
.	16ff#Jk	.
=90	=90	=90
8BB 8E 8GL	8gg'L)	mf
8BB 8E 8G	8aa'	.
8BB 8E 8GJ	8bb'J	.
=91	=91	=91
8AA# 8E 8GL	(16aaLL	.
.	16gg	.
8AA# 8E 8G	16ff#	.
.	16ee	.
8AA# 8E 8GJ	16dd#	.
.	16eeJJ)	.
=92	=92	=92
.	(8eeqq	.
(8BBL	4.dd#)	>
8B)	.	.
8BB'J	.	]]
=93||	=93||	=93||
*clefG2	*k[f#c#]	*k[f#c#]
*k[f#c#]	*	*
(8b'L>	16r	p
.	(16ff#LL	.
8b'	16dd#	.
.	16ee	.
8b'J	16ff#	.
.	16ggJJ	.
=94	=94	=94
8a' 8ccn'L>	8ff#'L	.
8a' 8cc'	8cccn'	.
8a') 8cc'J	8aa'J)	.
!!LO:LB:g=z
=95	=95	=95
(8a' 8ccn'L>	16r	.
.	(16ff#LL	.
8a' 8cc'	16dd#	.
.	16ee	.
8a' 8cc'J	16ff#	.
.	16ggJJ	.
=96	=96	=96
8g' 8b'L	8ee'L	.
8g' 8b'	8bb'	.
8g') 8b'J	8gg'J)	.
=97	=97	=97
(8g' 8b'L	16r	<
.	(16eeLL	.
8g'	16b	.
.	16cc#	.
8g' 8b'J	16dd	.
.	16eeJJ	.
=98	=98	=98
8f#' 8b'L	8dd'L	.
8f#' 8b'	8bb'	.
8f#') 8b'J	8dd'J)	.
=99	=99	=99
(8f#' 8b'L	16r	.
.	(16ddLL	.
8f#'	16b	.
.	16cc#	.
8f#' 8b'J	16dd	.
.	16eeJJ	.
=100	=100	=100
8e 8bL	8cc#'L	.
8e' 8b'	8bb'	.
8e') 8b'J	8cc#'J)	.
!!LO:LB:g=z
=101	=101	=101
(8e' 8a#'L	16r	.
.	(16cc#LL	.
8e'	16a#	.
.	16b	.
8e' 8a#'J	16cc#	.
.	16ddJJ	.
=102	=102	=102
8d' 8f#'L	8b'L	.
8d' 8f#'	8bb'	.
8d') 8f#'J	8b'J)	.
*clefF4	*	*
=103	=103	=103
8D' 8F#' 8B'L	16r	mf
.	16ff#LL	.
8D' 8F#' 8B'	(16ff#	.
.	16bb)	.
8D' 8F#' 8B'J	(16bb	.
.	16aaJJ)	.
=104	=104	=104
8E' 8G' 8B'L	(16aaLL	.
.	16gg)	.
8E' 8G' 8B'	(16gg	.
.	16ff#)	.
8F#'J	(16ff#	.
.	16eeJJ)	.
=105	=105	=105
*^	*	*
(8GL	4.G	(16eeLL	.
.	.	16dd)	.
8B	.	(16dd	.
.	.	16cc#)	.
8eJ)	.	(16cc#	.
.	.	16ddJJ)	.
*v	*v	*	*
!!LO:LB:g=z
=106	=106	=106
8.F# 8.f#L	(8bL	> ]
.	16a#Jk)	.
(16F#L	16r	p
16G	8r	.
16EJJ	.	.
=107	=107	=107
16A#LL	16r	<
16F#	(16c#	.
16B	8d'L)	.
16F#	.	.
16c#	8e'J	.
16F#JJ	.	.
=108	=108	=108
16dLL	8f#'L	.
16F#	.	.
16e	8g#'	.
16F#	.	.
16f#	8a#'J	.
16F#JJ	.	.
=109	=109	=109
16gnLL	8bL	.
16F#	.	.
16f#	8a#'	.
16F#	.	.
16g	8b'J	.
16F#JJ)	.	.
=110	=110	=110
*^	*	*
8f#	8.F#L	(16cc#LL	f
.	.	16a#J	.
4ryy	.	8f#J)	p
.	(16F#L	.	.
.	16G	8r	.
.	16EJJ	.	.
*v	*v	*	*
!!LO:LB:g=z
=111	=111	=111
16A#LL	16r	<
16F#	(16c#	.
16B	8d'L)	.
16F#	.	.
16c#	8e'J	.
16F#JJ	.	.
=112	=112	=112
16dLL	8f#'L	.
16F#	.	.
16e	8g#'	.
16F#	.	.
16f#	8a#'J	.
16F#JJ	.	.
=113	=113	=113
16gnLL	8b'L	.
16F#	.	.
16f#	8a#'	.
16F#	.	.
16g	8b'J	.
16F#JJ)	.	.
=114	=114	=114
*^	*	*
8f#	8.F#L	(16cc#LL	f
.	.	16a#J	.
4ryy	.	8f#J)	.
.	(<16eL	.	>
.	16d#	8r	.
.	16c#JJ	.	]]
*v	*v	*	*
*clefG2	*	*
!!LO:LB:g=z
=115||	=115||	=115||
*k[f#c#g#d#a#]	*k[f#c#g#d#a#]	*k[f#c#g#d#a#]
8.B) 8.bL	16r	p
.	16dd#' 16ff#'	<
.	[4dd# [4ff#	.
(<16a#L	.	.
16g#	.	.
16f#JJ	.	.
=116	=116	=116
16eLL	16dd#] 16ff#LL]	.
16d#JJ	16ee' 16gg#'JJ	.
*clefF4	*	*
16c#LL	[4ee [4gg#	.
16B	.	.
16A#	.	.
16G#JJ	.	.
=117	=117	=117
*	*^	*
16F#LL	4ryy	16ee] 16gg#LL]	.
16E	.	16cc#' 16aa#'J	.
16D#	.	8cc#' 8aa#'	.
16C#J	.	.	.
8BB'J)	(16bbLL	8dd#J	f
.	16ff#JJ	.	.
*	*v	*v	*
=118	=118	=118
(8EL<	16gg#LL	.
.	16ee	.
8F#)	16dd#	.
.	16cc#	.
8FF#'J	16b	.
.	16a#JJ)	.
*clefG2	*	*
=119	=119	=119
(<8.bL	16r	p
.	16dd#' 16ff#'	<
.	[4dd# [4ff#	.
16a#L	.	.
16g#	.	.
16f#JJ	.	.
!!LO:LB:g=z
=120	=120	=120
16eLL	16dd#] 16ff#LL]	.
16d#JJ	16ee' 16gg#'JJ	.
*clefF4	*	*
16c#LL	[4ee [4gg#	.
16B	.	.
16A#	.	.
16G#JJ	.	.
=121	=121	=121
*	*^	*
16F#LL	4ryy	16ee] 16gg#LL]	.
16E	.	16cc#' 16aa#'J	.
16D#	.	8cc#' 8aa#'	.
16C#J	.	.	.
8BBJ)	(16bbLL	8dd#J	f
.	16ff#JJ	.	.
*	*v	*v	*
=122	=122	=122
(8EL	16gg#LL	.
.	16ee	.
8F#)	16dd#	.
.	16cc#	.
8FF#'J	16b	.
.	16a#JJ	.
=123	=123	=123
(8BBL	16bLL	.
.	16bb)	.
8C#	(16bb	.
.	16aa#)	.
8D#J	(16aa#	.
.	16gg#JJ)	.
=124	=124	=124
8EL	(16gg#LL	.
.	16ff#)	.
8F#)	(16ff#	.
.	16ee)	.
8FF#'J	(16ee	.
.	16dd#JJ)	.
!!LO:LB:g=z
=125	=125	=125
(8BBL	(16dd#LL	>
.	16cc#)	.
8C#	(16cc#	.
.	16b)	.
8D#J	(16b	.
.	16a#JJ)	.
=126	=126	=126
8EL	(16a#LL	.
.	16g#)	.
8F#)	(16g#	.
.	16f#)	.
8FF#'J	(16f#	.
.	16eJJ)	.
=127	=127	=127
(8BBL	(16eLL	p
.	16d#)	.
8C#	(16d#	.
.	16c#	.
8D#J	16B	.
.	16c#JJ	.
=128	=128	=128
8EL	16d#LL	.
.	16e	.
8F#)	16d#	.
.	16c#	.
8FF#'J	16B	.
.	16A#JJ	.
=129	=129	=129
4.BB	4.B)	.
==:|!	==:|!	==:|!
*-	*-	*-
!!!RDF**kern: > = above
!!!RDF**kern: < = below
!!!verovio: beamFrenchStyle 1
!!!URL-vhv: https://verovio.humdrum.org/?file=scarlatti/sonatas/L348K244.krn
!!!URL-pdf: https://github.com/craigsapp/scarlatti-keyboard-sonatas/blob/master/reference-edition/L348K244.pdf (reference ed.) Alessandro Longo (1864-1945) Milan: G. Ricordi & C.
!!!URL-pdf: https://imslp.eu/files/imglnks/euimg/d/dd/IMSLP350337-PMLP506809-Scarlatti,_Domenico-Sonates_Heugel_32.300_Volume_5.pdf#page=170 (urtext) Kenneth Gilbert (1931-2020), Le Pupitre, Vol.35, Paris: Heugel, 1974. Plate H. 32,300.
!!!URL-youtube: https://www.youtube.com/watch?v=a6klA9FebjI Scott Ross, harpsichord
!!!URL-youtube: https://www.youtube.com/watch?v=xOFC9rAIaCs Ryan Layne Whitney, piano
!!!PTL: Domenico Scarlatti: Opere complete per clavicembalo
!!!PED: Longo, Alessandro
!!!PPR: Ricordi
!!!PPP: Milan
!!!PDT: 1906-1913
!!!YEC: 2021 Craig Stuart Sapp
!!!YEM: Licence: (CC BY-NC-SA 4.0) https://creativecommons.org/licenses/by-nc-sa/4.0
!!!ENC: Craig Stuart Sapp
!!!END: 2004/11/03
!!!EED: Craig Stuart Sapp
!!!EEV: 2021/06/05
